packages/kaspersky-hexa-ui-icons/src/iconsSVGs/28x20/FlagPr.svg

<svg width="28" height="20" viewBox="0 0 28 20" fill="none" xmlns="http://www.w3.org/2000/svg">
<g clip-path="url(#clip0_5138_1642)">
<path d="M0 2C0 0.895431 0.895431 0 2 0H26C27.1046 0 28 0.895431 28 2V18C28 19.1046 27.1046 20 26 20H2C0.895431 20 0 19.1046 0 18V2Z" fill="white"/>
<mask id="mask0_5138_1642" style="mask-type:luminance" maskUnits="userSpaceOnUse" x="0" y="0" width="28" height="20">
<rect width="28" height="20" rx="2" fill="white"/>
</mask>
<g mask="url(#mask0_5138_1642)">
<path d="M26 19.5V20H2V19.5H26ZM27.5 18V2C27.5 1.17157 26.8284 0.5 26 0.5H2C1.17157 0.5 0.5 1.17157 0.5 2V18C0.5 18.8284 1.17157 19.5 2 19.5V20C0.895431 20 0 19.1046 0 18V2C2.57702e-07 0.895431 0.895431 0 2 0H26C27.1046 0 28 0.895431 28 2V18C28 19.1046 27.1046 20 26 20V19.5C26.8284 19.5 27.5 18.8284 27.5 18Z" fill="#F5F5F5"/>
<path fill-rule="evenodd" clip-rule="evenodd" d="M0 0H28V4H0V0ZM0 8H28V12H0V8ZM0 16V20H28V16H0Z" fill="#FA2222"/>
<path fill-rule="evenodd" clip-rule="evenodd" d="M0 0L13.3333 10L0 20V0Z" fill="#1D63F9"/>
<path fill-rule="evenodd" clip-rule="evenodd" d="M4.66667 11.2741L2.70738 12.6967L3.45494 10.3937L1.49648 8.96995L3.91778 8.96925L4.66667 6.66667L5.41555 8.96925L7.83685 8.96995L5.87839 10.3937L6.62595 12.6967L4.66667 11.2741Z" fill="white"/>
</g>
</g>
<defs>
<clipPath id="clip0_5138_1642">
<rect width="28" height="20" fill="white"/>
</clipPath>
</defs>
</svg>

<svg xmlns="http://www.w3.org/2000/svg" width="28" height="20" fill="none" viewBox="0 0 28 20"><g clip-path="url(#a)"><path fill="#fff" d="M0 2C0 .8954.8954 0 2 0h24c1.1046 0 2 .8954 2 2v16c0 1.1046-.8954 2-2 2H2c-1.1046 0-2-.8954-2-2z"/><mask id="b" width="28" height="20" x="0" y="0" maskUnits="userSpaceOnUse" style="mask-type:luminance"><rect width="28" height="20" fill="#fff" rx="2"/></mask><g mask="url(#b)"><path fill="#f5f5f5" d="M26 19.5v.5H2v-.5zm1.5-1.5V2c0-.8284-.6716-1.5-1.5-1.5H2C1.1716.5.5 1.1716.5 2v16c0 .8284.6716 1.5 1.5 1.5v.5c-1.1046 0-2-.8954-2-2V2C0 .8954.8954 0 2 0h24c1.1046 0 2 .8954 2 2v16c0 1.1046-.8954 2-2 2v-.5c.8284 0 1.5-.6716 1.5-1.5"/><path fill="#fa2222" fill-rule="evenodd" d="M0 0h28v4H0zm0 8h28v4H0zm0 8v4h28v-4z" clip-rule="evenodd"/><path fill="#1d63f9" fill-rule="evenodd" d="m0 0 13.3333 10L0 20z" clip-rule="evenodd"/><path fill="#fff" fill-rule="evenodd" d="m4.6667 11.2741-1.9593 1.4226.7475-2.303L1.4965 8.97l2.4213-.0008.7489-2.3025.7489 2.3026 2.4212.0007-1.9584 1.4237.7475 2.303z" clip-rule="evenodd"/></g></g><defs><clipPath id="a"><path fill="#fff" d="M0 0h28v20H0z"/></clipPath></defs></svg>
